BEATS/img/properties/dynamic.svg

<?xml version="1.0" encoding="UTF-8" standalone="no"?>
<svg
   width="125"
   height="126"
   viewBox="0 0 125 126"
   fill="none"
   version="1.1"
   id="svg1"
   xml:space="preserve"
   xmlns="http://www.w3.org/2000/svg"
   xmlns:svg="http://www.w3.org/2000/svg"><defs
     id="defs1" /><path
     fill-rule="evenodd"
     clip-rule="evenodd"
     d="M62.4998 0.99808C97.0177 0.99808 125 28.98 125 63.498C125 98.015 97.0177 125.997 62.4998 125.997C27.9821 125.997 -0.000128031 98.015 -0.000128031 63.498C-0.000128031 28.98 27.9821 0.99808 62.4998 0.99808Z"
     fill="#F2F5F4"
     id="path1" /><g
     style="fill:none"
     id="g1"
     transform="translate(32.604603,33)" /><g
     style="fill:none"
     id="g2"
     transform="translate(72.775943,50.014094)"><path
       d="m 11.026,13.513 c 0,-5.97202 -4.009,-11.30202 -9.749,-12.962022 -0.532997,-0.151 -1.083996,0.152 -1.2379961,0.684002 -0.1529999,0.53 0.1519981,1.085 0.6839981,1.238 C 5.612,3.88598 9.027,8.42598 9.027,13.513 c 0,5.087 -3.415,9.627 -8.303998,11.04 -0.531,0.153 -0.836998,0.708 -0.6839981,1.238 C 0.166004,26.229 0.565002,26.514 1,26.514 c 0.092,0 0.185,-0.013 0.277,-0.039 5.741,-1.66 9.749,-6.99 9.749,-12.962 z"
       fill="#000000"
       id="path1-9" /></g><g
     style="fill:none"
     id="g3"
     transform="translate(76.601507,44.486061)"><path
       d="M 1.797,0.0659642 C 1.274,-0.111036 0.706,0.168964 0.528,0.691964 0.351,1.21396 0.631,1.78296 1.154,1.96096 8.255,4.37196 13.026,11.024 13.026,18.514 c 0,7.483 -4.762,14.136 -11.849,16.554 -0.522001,0.178 -0.801999,0.746 -0.622999,1.27 0.142,0.415 0.529999,0.677 0.945999,0.677 0.107,0 0.216,-0.017 0.323,-0.054 C 9.719,34.268 15.025,26.855 15.025,18.515 15.026,10.166 9.71,2.75296 1.797,0.0659642 Z"
       fill="#000000"
       id="path1-8" /></g><g
     style="fill:none"
     id="g4"
     transform="translate(40.09205,39.987537)"><path
       d="m 28.404,0.412994 c -0.976,-0.552 -2.131,-0.534 -3.09,0.044 -0.046,0.027 -0.09,0.059 -0.13,0.093 L 11.634,12.013 H 1 c -0.553,0 -1,0.447 -1,1 v 19 c 0,0.266 0.105,0.52 0.293,0.707 0.188,0.187 0.441,0.293 0.707,0.293 l 10.61,-0.005 13.543,12.44 c 0.05,0.046 0.104,0.086 0.161,0.12 0.492,0.297 1.037,0.446 1.582,0.446 0.517,-0.001 1.033,-0.134 1.508,-0.402 C 29.403,45.048 30,44.018 30,42.857 V 3.16899 C 30,2.00799 29.403,0.977994 28.404,0.412994 Z M 28,42.857 c 0,0.431 -0.217,0.81 -0.579,1.015 -0.155,0.087 -0.548,0.255 -1,0.026 L 13,31.569 v -4.556 c 0,-0.553 -0.447,-1 -1,-1 -0.553,0 -1,0.447 -1,1 v 3.996 l -9,0.004 v -17 h 9 v 4 c 0,0.553 0.447,1 1,1 0.553,0 1,-0.447 1,-1 V 13.477 L 26.405,2.13699 c 0.461,-0.242 0.86,-0.07 1.016,0.018 0.362,0.205 0.579,0.584 0.579,1.014 z"
       fill="#000000"
       id="path1-93" /></g></svg>

<svg width="53" height="47" viewBox="0 0 53 47" fill="none" xmlns="http://www.w3.org/2000/svg">
<path d="M28.404 0.412994C27.428 -0.139006 26.273 -0.121006 25.314 0.456994C25.268 0.483994 25.224 0.515994 25.184 0.549994L11.634 12.013H1C0.447 12.013 0 12.46 0 13.013V32.013C0 32.279 0.105 32.533 0.293 32.72C0.481 32.907 0.734 33.013 1 33.013L11.61 33.008L25.153 45.448C25.203 45.494 25.257 45.534 25.314 45.568C25.806 45.865 26.351 46.014 26.896 46.014C27.413 46.013 27.929 45.88 28.404 45.612C29.403 45.048 30 44.018 30 42.857V3.16899C30 2.00799 29.403 0.977994 28.404 0.412994ZM28 42.857C28 43.288 27.783 43.667 27.421 43.872C27.266 43.959 26.873 44.127 26.421 43.898L13 31.569V27.013C13 26.46 12.553 26.013 12 26.013C11.447 26.013 11 26.46 11 27.013V31.009L2 31.013V14.013H11V18.013C11 18.566 11.447 19.013 12 19.013C12.553 19.013 13 18.566 13 18.013V13.477L26.405 2.13699C26.866 1.89499 27.265 2.06699 27.421 2.15499C27.783 2.35999 28 2.73899 28 3.16899V42.857Z" fill="black"/>
<path d="M38.797 4.06596C38.274 3.88896 37.706 4.16896 37.528 4.69196C37.351 5.21396 37.631 5.78296 38.154 5.96096C45.255 8.37196 50.026 15.024 50.026 22.514C50.026 29.997 45.264 36.65 38.177 39.068C37.655 39.246 37.375 39.814 37.554 40.338C37.696 40.753 38.084 41.015 38.5 41.015C38.607 41.015 38.716 40.998 38.823 40.961C46.719 38.268 52.025 30.855 52.025 22.515C52.026 14.166 46.71 6.75296 38.797 4.06596Z" fill="black"/>
<path d="M43.026 22.513C43.026 16.541 39.017 11.211 33.277 9.55098C32.744 9.39998 32.193 9.70298 32.039 10.235C31.886 10.765 32.191 11.32 32.723 11.473C37.612 12.886 41.027 17.426 41.027 22.513C41.027 27.6 37.612 32.14 32.723 33.553C32.192 33.706 31.886 34.261 32.039 34.791C32.166 35.229 32.565 35.514 33 35.514C33.092 35.514 33.185 35.501 33.277 35.475C39.018 33.815 43.026 28.485 43.026 22.513Z" fill="black"/>
</svg>
